material/.icons/material/head-heart-outline.svg

<svg xmlns="http://www.w3.org/2000/svg" viewBox="0 0 24 24"><path d="M13 3c3.88 0 7 3.14 7 7 0 2.8-1.63 5.19-4 6.31V21H9v-3H8c-1.11 0-2-.89-2-2v-3H4.5c-.42 0-.66-.5-.42-.81L6 9.66A7.003 7.003 0 0113 3m0-2C8.41 1 4.61 4.42 4.06 8.9L2.5 11h-.03l-.02.03c-.55.76-.62 1.76-.19 2.59.36.69 1 1.17 1.74 1.32V16c0 1.85 1.28 3.42 3 3.87V23h11v-5.5c2.5-1.67 4-4.44 4-7.5 0-4.97-4.04-9-9-9m4 7.83c0 1.54-1.36 2.77-3.42 4.64L13 14l-.58-.53C10.36 11.6 9 10.37 9 8.83c0-1.2.96-2.19 2.16-2.2h.04c.69 0 1.35.31 1.8.83.45-.52 1.11-.83 1.8-.83 1.2-.01 2.2.96 2.2 2.16v.04z"/></svg>

<?xml version="1.0" encoding="UTF-8"?><!DOCTYPE svg PUBLIC "-//W3C//DTD SVG 1.1//EN" "http://www.w3.org/Graphics/SVG/1.1/DTD/svg11.dtd"><svg xmlns="http://www.w3.org/2000/svg" xmlns:xlink="http://www.w3.org/1999/xlink" version="1.1" id="mdi-head-heart-outline" width="24" height="24" viewBox="0 0 24 24"><path d="M13 3C16.88 3 20 6.14 20 10C20 12.8 18.37 15.19 16 16.31V21H9V18H8C6.89 18 6 17.11 6 16V13H4.5C4.08 13 3.84 12.5 4.08 12.19L6 9.66C6.19 5.95 9.23 3 13 3M13 1C8.41 1 4.61 4.42 4.06 8.9L2.5 11L2.47 11L2.45 11.03C1.9 11.79 1.83 12.79 2.26 13.62C2.62 14.31 3.26 14.79 4 14.94V16C4 17.85 5.28 19.42 7 19.87V23H18V17.5C20.5 15.83 22 13.06 22 10C22 5.03 17.96 1 13 1M17 8.83C17 10.37 15.64 11.6 13.58 13.47L13 14L12.42 13.47C10.36 11.6 9 10.37 9 8.83C9 7.63 9.96 6.64 11.16 6.63H11.2C11.89 6.63 12.55 6.94 13 7.46C13.45 6.94 14.11 6.63 14.8 6.63C16 6.62 17 7.59 17 8.79V8.83Z" /></svg>
